packages/core/src/svgs/tokens/mono/TKN.svg

<svg width="24" height="24" viewBox="0 0 24 24" fill="none" xmlns="http://www.w3.org/2000/svg">
<path d="M9.81248 3.90999L14.1874 2V6.99999H19.8125V10.75H14.1874V16.6194C14.1874 18.4593 17.41 18.6693 18.5624 18.0593L19.5975 21.2394C17.0587 22.7493 9.81248 22.3894 9.81248 16.6494V3.90999ZM6.11124 11.5C5.04688 11.5 4.1875 10.4299 4.1875 9.10999C4.1875 7.78998 5.05624 6.72999 6.12125 6.72999C7.195 6.72999 8.05436 7.78998 8.05436 9.10999C8.05436 10.42 7.195 11.4894 6.12125 11.4894L6.11124 11.5Z" fill="white"/>
</svg>

<svg xmlns="http://www.w3.org/2000/svg" width="24" height="24" fill="none" viewBox="0 0 24 24">
    <path fill="#fff" d="M9.812 3.91 14.187 2v5h5.626v3.75h-5.626v5.87c0 1.84 3.223 2.05 4.375 1.44l1.035 3.18c-2.538 1.51-9.785 1.15-9.785-4.59zm-3.7 7.59c-1.065 0-1.924-1.07-1.924-2.39s.868-2.38 1.933-2.38c1.074 0 1.933 1.06 1.933 2.38 0 1.31-.859 2.38-1.933 2.38z"/>
</svg>
